Papirus/16x16/apps/QOwnNotes.svg

<svg xmlns="http://www.w3.org/2000/svg" width="16" height="16" version="1">
 <path style="fill:#303d75" d="m 14.8571,4e-8 c 0,0 1.1429,0 1.1429,1.14289996 l 0,13.714 c 0,1.143 -1.1429,1.143 -1.1429,1.143 l -8.8571,0 -6,-6 0,-8.8571 C 0,-9.996e-5 1.143,-9.996e-5 1.143,-9.996e-5 Z"/>
 <path style="fill:#44559e" d="m 0,10 5.1,0 C 5.597,10 6,10.403 6,10.9 L 6,16 Z"/>
 <path style="fill:#5d8cb9" d="M 7.9999999,0.99999809 A 3.5000006,3.5000006 0 0 0 4.5,4.4999979 3.5000006,3.5000006 0 0 0 4.54004,5.0009749 2.5000004,2.5000004 0 0 0 4.5,4.9999999 2.5000004,2.5000004 0 0 0 2,7.4999999 2.5000004,2.5000004 0 0 0 4.5,10 L 11,10 A 3.0000005,3.0000005 0 0 0 14,6.9999999 3.0000005,3.0000005 0 0 0 11.465821,4.0390619 3.5000006,3.5000006 0 0 0 7.9999999,0.99999959 Z m -10e-4,1.00000001 10e-4,0 c 1.2596738,0.0018 2.3087001,0.9220846 2.4746101,2.1708988 a 1.0001,1.0001 0 0 0 0.835937,0.856445 c 0.979046,0.153886 1.688569,0.982567 1.689453,1.973633 -5.5e-4,1.115932 -0.883927,1.999022 -2,1.999023 l -6.5,0 c -0.8402705,-1e-6 -1.499999,-0.659729 -1.5,-1.5 -1e-6,-0.840272 0.659728,-1.499999 1.5,-1.5 0.001,3.5e-5 0.00195,-3.7e-5 0.00295,0 a 1.0001,1.0001 0 0 0 1.025391,-1.15039 C 5.510495,4.7330959 5.50121,4.6158979 5.5,4.4980449 5.50107,3.1067657 6.6076069,2.0005281 7.9990239,1.9999981 Z"/>
</svg>

<svg xmlns="http://www.w3.org/2000/svg" width="16" height="16" version="1">
 <path style="fill:#303d75" d="M 15,0 H 1 C 0.446,0 0,0.446 0,1 V 10 L 5,11 6,16 H 15 C 15.554,16 16,15.554 16,15 V 1 C 16,0.446 15.554,0 15,0 Z"/>
 <path style="fill:#44559e" d="M 5,10 H 0 L 6,16 V 11 C 6,10.446 5.554,10 5,10 Z"/>
 <path style="fill:#5d8cb9" d="M 8,1 A 3.5,3.5 0 0 0 4.5,4.5 3.5,3.5 0 0 0 4.54,5.001 2.5,2.5 0 0 0 4.5,5 2.5,2.5 0 0 0 2,7.5 2.5,2.5 0 0 0 4.5,10 H 11 A 3,3 0 0 0 14,7 3,3 0 0 0 11.466,4.0391 3.5,3.5 0 0 0 8,1 Z M 7.999,2 H 8 C 9.2597,2.0018 10.309,2.9221 10.475,4.1709 A 1.0001,1.0001 0 0 0 11.311,5.0273 C 12.29,5.1812 12.999,6.0099 13,7.001 12.999,8.1169 12.116,9 11,9 H 4.5 C 3.6597,9 3,8.3403 3,7.5 3,6.6597 3.6597,6 4.5,6 4.501,6 4.5019,6 4.503,6 A 1.0001,1.0001 0 0 0 5.5283,4.8496 C 5.5105,4.7331 5.5012,4.6159 5.5,4.498 5.5011,3.1068 6.6076,2.0005 7.999,2 Z"/>
</svg>
